svg/fluentui-system-icons/ic_fluent_alert_urgent_16_filled.svg

<svg width="16" height="16" viewBox="0 0 16 16" fill="none" xmlns="http://www.w3.org/2000/svg">
<path d="M10.0432 1.29706C10.1554 1.04471 10.4509 0.931067 10.7032 1.04322C10.8188 1.0946 12.6805 1.9816 13.9295 4.07385C14.5613 5.13229 14.8269 6.2181 14.9361 7.04622C14.9908 7.46155 15.0068 7.81582 15.0089 8.07478C15.01 8.20442 15.0077 8.31013 15.005 8.3874C15.0037 8.42595 15.0023 8.45718 15.0013 8.47947L15.0001 8.50524L15.0001 8.50108C14.9996 8.77678 14.7759 9.00012 14.5001 9.00012C14.224 9.00012 14.0001 8.77627 14.0001 8.50012C14.0001 8.49111 14.0008 8.47438 14.0018 8.45046C14.0159 8.10818 14.0907 6.29497 13.0708 4.5864C12.5238 3.67005 11.8393 3.01529 11.2812 2.58552C11.0027 2.37106 10.7577 2.21419 10.5804 2.1102C10.4098 2.01007 10.3049 1.9607 10.2971 1.95703C10.0447 1.84488 9.93107 1.5494 10.0432 1.29706ZM10.0948 3.71029C10.2565 3.48647 10.5691 3.43615 10.7929 3.59789C10.7896 3.59553 11.0285 3.74616 11.3136 4.00773C11.5998 4.27037 11.9534 4.66095 12.2353 5.18515C12.5154 5.70587 12.6495 6.20426 12.714 6.57927C12.7463 6.7673 12.7614 6.926 12.7684 7.04332C12.7719 7.10207 12.7734 7.15046 12.774 7.18696C12.7745 7.22202 12.7742 7.24987 12.7742 7.24987C12.7742 7.52601 12.5503 7.74987 12.2742 7.74987C11.9981 7.74987 11.7742 7.52601 11.7742 7.24987L11.7742 7.24663C11.7748 7.18585 11.7816 6.45284 11.3546 5.6588C10.9494 4.90537 10.349 4.50354 10.2262 4.42136C10.2172 4.41532 10.2108 4.411 10.2072 4.40841C9.98336 4.24666 9.93304 3.93411 10.0948 3.71029ZM2.53652 10.707C1.43204 8.79398 2.08749 6.34782 4.00051 5.24334C5.91352 4.13886 8.35968 4.79431 9.46416 6.70732L10.2849 8.12761L12.1901 9.51374C12.327 9.61332 12.4042 9.77537 12.3953 9.94439C12.3863 10.1134 12.2925 10.2664 12.146 10.3511L9.61623 11.8116L9.61972 11.814L6.88163 13.3948L6.88129 13.3906L4.35172 14.8511C4.20514 14.9357 4.0257 14.9404 3.87487 14.8636C3.72404 14.7868 3.6223 14.639 3.6045 14.4706L3.35668 12.1276L2.53652 10.707ZM10.2497 12.605L7.25167 14.3359C7.78058 15.0084 8.7369 15.2077 9.49948 14.7674C10.262 14.3272 10.5676 13.3993 10.2497 12.605Z" fill="#212121"/>
</svg>

<svg xmlns="http://www.w3.org/2000/svg" width="16" height="16"><path d="M10.043 1.297a.5.5 0 0 1 .66-.254c.116.052 1.978.939 3.227 3.03.631 1.06.897 2.145 1.006 2.973a8.447 8.447 0 0 1 .065 1.433v.026-.004a.5.5 0 0 1-1 0v-.05c.015-.343.09-2.156-.93-3.865a7.213 7.213 0 0 0-2.49-2.476c-.171-.1-.276-.15-.284-.153a.5.5 0 0 1-.254-.66Zm.052 2.413a.5.5 0 0 1 .698-.112c-.003-.002.236.148.52.41.287.262.64.653.922 1.177a4.603 4.603 0 0 1 .533 1.858c.004.06.005.107.006.144v.063a.5.5 0 0 1-1 0v-.003a3.478 3.478 0 0 0-1.567-2.839.5.5 0 0 1-.112-.698Zm-7.558 6.997a4 4 0 0 1 6.927-4l.82 1.42 1.906 1.387a.5.5 0 0 1-.044.837l-2.53 1.46.004.003-2.738 1.58v-.003l-2.53 1.46a.5.5 0 0 1-.748-.38l-.247-2.343-.82-1.421Zm7.713 1.898-2.998 1.73a1.75 1.75 0 0 0 2.998-1.73Z"/></svg>
